packages/sources/icons/src/vitamix/amazon-line.svg

<svg width="16" height="16" viewBox="0 0 16 16" fill="none" xmlns="http://www.w3.org/2000/svg">
<path fill-rule="evenodd" clip-rule="evenodd" d="M7.3333 11.336C8.59796 11.336 9.67863 10.826 10.4166 9.74667H10.4173V9.74734C10.7026 10.4627 10.856 10.7273 11.2046 11.162L12.2446 10.328C11.9793 9.99734 11.8926 9.84734 11.6553 9.25267C11.442 8.71867 11.3333 7.314 11.3333 5.548C11.3333 3.652 10.0686 2.2 8.3333 2.2C6.7953 2.2 5.62796 3.06934 5.03663 4.78267L6.29663 5.21734C6.70663 4.03134 7.3753 3.53334 8.3333 3.53334C9.28796 3.53334 9.99996 4.35067 9.99996 5.548V5.69134L9.90796 5.698C9.0433 5.762 8.8773 5.776 8.47663 5.82467C6.2313 6.1 4.8813 6.848 4.6713 8.58667C4.48263 10.154 5.7973 11.336 7.3333 11.336ZM13.8186 13.4033C13.6766 13.7507 13.9906 13.83 14.1713 13.6967V13.6973C14.8119 13.2233 15.1879 11.864 14.9446 11.5107C14.8346 11.352 13.9313 11.226 13.1646 11.4553C12.9569 11.5179 12.7609 11.6143 12.5846 11.7407C12.4499 11.836 12.5093 12.0427 12.6453 12.034C12.718 12.0292 12.7844 12.021 12.8537 12.0125C12.978 11.9972 13.1117 11.9807 13.3086 11.9807C13.6819 11.9807 13.8533 12.0653 13.9933 12.2353C14.1833 12.4647 13.9953 12.9713 13.8186 13.4033ZM13.3833 12.974C13.2101 13.1415 13.0252 13.2963 12.8299 13.4373C11.4153 14.5147 9.58327 15.0773 7.99127 15.0773C5.42927 15.0773 3.13794 13.882 1.39927 11.8807C1.25061 11.7273 1.37394 11.5033 1.54794 11.6247C3.42127 13.0093 5.73994 13.8467 8.14061 13.8467C9.65061 13.8467 11.2793 13.4887 12.8306 12.718C12.8839 12.693 12.9405 12.6634 12.9969 12.6339L12.9969 12.6339C13.0547 12.6037 13.1123 12.5736 13.1659 12.5487C13.4106 12.4087 13.6259 12.7527 13.3833 12.974ZM8.63856 7.148C9.00923 7.10266 9.16789 7.09 10.0066 7.02733H10.0146C9.67789 9.184 8.69256 10.0027 7.33323 10.0027C6.53523 10.0027 5.91123 9.442 5.99523 8.74666C6.10723 7.81666 6.93723 7.35666 8.63856 7.148Z" fill="#001018"/>
</svg>

<svg width="16" height="16" fill="none" xmlns="http://www.w3.org/2000/svg"><path fill-rule="evenodd" clip-rule="evenodd" d="M7.333 11.336c1.265 0 2.346-.51 3.084-1.59v.001c.286.716.439.98.788 1.415l1.04-.834c-.266-.33-.352-.48-.59-1.075-.213-.534-.322-1.939-.322-3.705 0-1.896-1.264-3.348-3-3.348-1.538 0-2.705.87-3.296 2.583l1.26.434c.41-1.186 1.078-1.684 2.036-1.684.955 0 1.667.818 1.667 2.015v.143l-.092.007c-.865.064-1.03.078-1.431.127C6.23 6.1 4.88 6.848 4.67 8.587c-.188 1.567 1.126 2.749 2.662 2.749zm6.486 2.067c-.142.348.172.427.352.294.64-.474 1.017-1.833.774-2.186-.11-.159-1.014-.285-1.78-.056a1.972 1.972 0 0 0-.58.286c-.135.095-.076.302.06.293.073-.005.14-.013.209-.022.124-.015.258-.031.455-.031.373 0 .544.084.684.254.19.23.002.736-.174 1.168zm-.436-.429a5.038 5.038 0 0 1-.553.463c-1.415 1.078-3.247 1.64-4.839 1.64-2.562 0-4.853-1.195-6.592-3.196-.148-.154-.025-.378.149-.256 1.873 1.384 4.192 2.222 6.593 2.222 1.51 0 3.138-.358 4.69-1.129.053-.025.11-.055.166-.084.058-.03.115-.06.169-.085.245-.14.46.204.217.425zM8.64 7.148c.37-.045.529-.058 1.368-.12h.008c-.337 2.156-1.322 2.975-2.682 2.975-.798 0-1.422-.561-1.338-1.256.112-.93.942-1.39 2.644-1.599z" fill="#001018"/></svg>
